rospo-light/16x16/actions/news-unsubscribe.svg

<svg height="16" viewBox="0 0 16 16" width="16" xmlns="http://www.w3.org/2000/svg"><path d="m0 1v14c3.4739-.001 6.947775-.000047 10.421875.001953l-.128906-.128906c-.3904002-.39-.3904002-1.023063 0-1.414063l.458984-.458984h-9.751953v-1h9.751953l-.458984-.458984c-.3904002-.391-.3904002-1.024063 0-1.414063l.126953-.126953h-1.419922v-1h6v .015625c.319-.0541.644047.0491437.873047.2773438l.126953.1269531v-8.4160157c-5.333.0020001-10.667-.0059062-16-.0039062zm6 2v6.9960938l-5 .0039062v-6.9960938zm3 0h6v1h-6zm0 3h6v1h-6zm2.833984 4-.833984.833984 1.666016 1.666016-1.666016 1.666016.833984.833984 1.666016-1.666016 1.666016 1.666016.833984-.833984-1.666016-1.666016 1.666016-1.666016-.833984-.833984-1.666016 1.666016z" fill="#5c616c"/></svg>

<?xml version="1.0" encoding="UTF-8" standalone="no"?>
<svg xmlns="http://www.w3.org/2000/svg" width="22" height="22" viewBox="0 0 22 22">
 <defs>
  <style type="text/css" id="current-color-scheme">
   .ColorScheme-Text { color:#5c616c; } .ColorScheme-Highlight { color:#5294e2; }
  </style>
 </defs>
 <path style="fill:currentColor;opacity:1" class="ColorScheme-Text" transform="translate(3 3)" d="M 0 1 L 0 15 C 3.4739 14.999 6.947775 14.999953 10.421875 15.001953 L 10.292969 14.873047 C 9.9025688 14.483047 9.9025688 13.849984 10.292969 13.458984 L 10.751953 13 L 1 13 L 1 12 L 10.751953 12 L 10.292969 11.541016 C 9.9025688 11.150016 9.9025688 10.516953 10.292969 10.126953 L 10.419922 10 L 9 10 L 9 9 L 15 9 L 15 9.015625 C 15.319 8.961525 15.644047 9.0647687 15.873047 9.2929688 L 16 9.4199219 L 16 1.0039062 C 10.667 1.0059063 5.333 0.998 0 1 z M 6 3 L 6 9.9960938 L 1 10 L 1 3.0039062 L 6 3 z M 9 3 L 15 3 L 15 4 L 9 4 L 9 3 z M 9 6 L 15 6 L 15 7 L 9 7 L 9 6 z M 11.833984 10 L 11 10.833984 L 12.666016 12.5 L 11 14.166016 L 11.833984 15 L 13.5 13.333984 L 15.166016 15 L 16 14.166016 L 14.333984 12.5 L 16 10.833984 L 15.166016 10 L 13.5 11.666016 L 11.833984 10 z"/>
</svg>
